Hatter-kde/actions/22/nextuntranslated.svg

<svg xmlns="http://www.w3.org/2000/svg" viewBox="0 0 22 22">
  <defs id="defs3051">
    <style type="text/css" id="current-color-scheme">
      .ColorScheme-Text {
        color:#363636;
      }
      </style>
  </defs>
 <path 
     style="fill:currentColor;fill-opacity:1;stroke:none" 
     d="M 15.707031 4 L 15 4.7070312 L 17.292969 7 L 13 7 L 13 8 L 17.292969 8 L 15 10.292969 L 15.707031 11 L 19 7.7070312 L 19.207031 7.5 L 19 7.2929688 L 15.707031 4 z M 5 15 L 5 16 L 5 17 L 16 17 L 16 16 L 16 15 L 15 15 L 15 16 L 6 16 L 6 15 L 5 15 z "
     class="ColorScheme-Text"
     />
 </svg>

<?xml version="1.0" encoding="UTF-8"?>
<svg viewBox="0 0 22 22" xmlns="http://www.w3.org/2000/svg">
 <defs id="defs3051">
  <style id="current-color-scheme" type="text/css">.ColorScheme-Text {
        color:#363636;
      }</style>
 </defs>
 <path class="ColorScheme-Text" d="m15.707 4-0.70703 0.70703 2.293 2.293h-4.293v1h4.293l-2.293 2.293 0.70703 0.70703 3.5-3.5-3.5-3.5zm-10.707 11v1 1h11v-1-1h-1v1h-9v-1h-1z" fill="currentColor"/>
</svg>
